assets/sankalp.svg

<svg width="69" height="66" viewBox="0 0 69 66" fill="none" xmlns="http://www.w3.org/2000/svg">
<path d="M67.0294 53.4374H67.3155C67.5276 53.4367 67.732 53.5161 67.8881 53.6597C68.0441 53.8032 68.1402 54.0004 68.1572 54.2117L68.9989 65.0018C69.0084 65.1853 68.9577 65.3669 68.8543 65.5189C68.751 65.6709 68.6007 65.7849 68.4265 65.8434C68.3392 65.8703 68.2485 65.8845 68.1572 65.8855C68.0171 65.8862 67.8791 65.8519 67.7557 65.7858C67.6322 65.7196 67.5272 65.6237 67.4502 65.5068C67.2735 65.229 62.981 58.8324 53.5545 60.4568L51.0295 60.8945C40.4415 62.7714 24.4416 65.6162 18.2049 54.6326C16.7368 51.8077 15.7363 48.7635 15.2423 45.6184C14.9871 44.2167 14.6299 42.8355 14.1734 41.4859C14.0303 41.3765 13.8788 41.2671 13.7273 41.1324C13.0232 40.4596 12.4521 39.6601 12.044 38.7758C11.9515 38.7253 11.8757 38.6664 11.7831 38.6243C10.3018 38.0183 8.81208 36.1498 7.91992 33.8773C5.27712 31.7648 0.681686 30.5107 0.63118 30.5107C0.494194 30.4751 0.368393 30.4056 0.265411 30.3085C0.16243 30.2114 0.0856018 30.0899 0.0420303 29.9552C-0.00238037 29.82 -0.0117798 29.6757 0.0147171 29.5359C0.041214 29.3961 0.10273 29.2652 0.193527 29.1556C2.47441 26.4287 6.2282 25.8395 8.15559 25.7301C9.12349 24.1141 10.9751 22.5318 14.5185 21.9595C14.4596 21.1178 14.4512 20.4193 14.4512 20.0069C11.7663 16.8422 12.3218 12.2215 12.6079 10.6308C7.55801 6.52354 9.83048 0.598281 9.85573 0.530948C9.89988 0.420418 9.96696 0.320508 10.0526 0.237811C10.1382 0.155115 10.2403 0.0915137 10.3523 0.0512051C10.4644 0.0102271 10.5838 -0.00646211 10.7028 0.00224417C10.8218 0.0109505 10.9376 0.0448528 11.0425 0.101704C12.0188 0.640363 25.2328 9.26733 29.5336 13.6608C32.0586 16.2867 33.5904 20.394 34.491 23.9458C35.7509 21.3349 37.6007 19.0528 39.8944 17.2799C45.8449 12.8864 64.3529 4.30157 65.6996 3.81341C65.8879 3.74076 66.096 3.73819 66.286 3.80617C66.476 3.87414 66.6353 4.00814 66.7348 4.18373C67.5646 5.82738 67.7478 7.72243 67.2482 9.49458C66.5049 11.6463 64.9534 13.4242 62.9221 14.4519C63.3429 16.1857 63.9994 20.7728 60.3971 23.8364C60.3971 25.242 60.2204 29.6691 57.8722 31.9836C56.9554 32.8926 55.7207 33.4088 54.4298 33.4228C53.6976 35.1062 51.0632 39.6511 43.6903 40.7957C49.6913 46.1234 57.9311 53.4374 67.0294 53.4374ZM13.3654 37.6143C13.679 38.4743 14.1925 39.2474 14.8636 39.8699C15.3938 40.3497 15.9241 40.5937 16.2271 40.4843C16.5301 40.3749 16.791 39.8531 16.9004 39.1461C17.0284 38.2376 16.9389 37.3116 16.6395 36.4444C16.2776 35.4344 15.7305 34.921 14.9562 34.921C14.7199 34.9239 14.4861 34.9696 14.266 35.0557C14.0513 35.122 13.8521 35.2307 13.6801 35.3752C13.5081 35.5198 13.3668 35.6973 13.2644 35.8973C13.0806 36.4619 13.1167 37.0751 13.3654 37.6143ZM11.4801 36.4107C11.4978 35.9841 11.5948 35.5645 11.7663 35.1735C11.927 34.8421 12.1466 34.5426 12.4144 34.2897C11.741 33.9868 11.0845 33.6922 10.4449 33.4481C10.2429 33.6501 10.0325 33.8437 9.81365 34.0288C10.2293 34.912 10.7929 35.7176 11.4801 36.4107ZM9.19923 27.3882C6.98841 27.3431 4.80677 27.8987 2.88682 28.9957C5.27774 29.663 7.632 30.4552 9.9399 31.3692C10.4289 30.6243 10.6266 29.7255 10.4954 28.8442C10.448 28.5004 10.2995 28.1784 10.0687 27.9191C9.83794 27.6598 9.53529 27.475 9.19923 27.3882ZM28.3216 14.8307C24.7867 11.1779 14.3923 4.22582 11.1687 2.15534C10.8539 3.54448 10.9604 4.99594 11.4746 6.32425C11.9889 7.65255 12.8875 8.79737 14.0556 9.61241C14.1908 9.7112 14.2934 9.84806 14.3503 10.0055C14.4073 10.1629 14.416 10.3337 14.3754 10.4961C14.3754 10.5551 13.0035 16.0258 15.8988 19.1147C15.9748 19.1957 16.034 19.291 16.073 19.395C16.112 19.499 16.13 19.6097 16.1261 19.7207C16.1261 20.2004 16.1261 20.9411 16.1766 21.7912C23.7515 21.3451 27.3706 26.3109 30.2743 30.334C30.754 30.9905 31.2085 31.6217 31.663 32.194C32.0652 30.2623 32.6283 28.3676 33.3463 26.5297C32.5804 22.7338 31.1244 17.6839 28.3216 14.8307ZM39.3389 39.3397C50.5245 39.6595 52.898 32.6064 52.9906 32.295C53.0461 32.1177 53.1588 31.9637 53.3111 31.8571C53.4633 31.7506 53.6466 31.6974 53.8322 31.7059C54.3362 31.765 54.8471 31.7094 55.3266 31.5432C55.8061 31.3771 56.2419 31.1047 56.6013 30.7464C58.8401 28.5581 58.6297 23.4913 58.6297 23.4408C58.6233 23.3052 58.6498 23.1701 58.707 23.047C58.7642 22.9239 58.8502 22.8165 58.9579 22.7338C62.9558 19.6954 61.1799 14.5024 61.1041 14.3173C61.0359 14.1271 61.0382 13.9188 61.1109 13.7303C61.1835 13.5417 61.3215 13.3856 61.4997 13.2904C63.7048 12.1374 65.0767 10.7066 65.5817 9.08217C65.9049 7.97908 65.8784 6.80298 65.506 5.71555C61.727 7.39886 46.0301 14.8559 40.8455 18.677C34.0281 23.727 32.8245 35.2408 32.8161 35.3587C32.805 35.4692 32.7723 35.5764 32.7198 35.6743C32.6673 35.7722 32.596 35.8588 32.5101 35.9291C32.4241 35.9995 32.3251 36.0522 32.2188 36.0843C32.1124 36.1164 32.0008 36.1272 31.8903 36.1161C31.7797 36.1051 31.6725 36.0724 31.5746 36.0199C31.4767 35.9674 31.3901 35.8961 31.3198 35.8101C31.2494 35.7241 31.1967 35.6252 31.1646 35.5188C31.1325 35.4125 31.1217 35.3008 31.1328 35.1903C31.1328 35.123 31.1328 34.8368 31.2338 34.3487C30.3845 33.3856 29.592 32.3739 28.8603 31.3187C25.9903 27.3461 22.7331 22.8432 15.7221 23.4913C13.1045 23.7354 11.1855 24.5686 10.0241 25.9153C10.5588 26.138 11.0293 26.4912 11.3924 26.9426C11.7556 27.3939 11.9999 27.9291 12.103 28.4992C12.3284 29.6974 12.1163 30.9368 11.5054 31.992C12.4396 32.3876 13.3907 32.8337 14.3502 33.2966C15.0771 33.1591 15.8291 33.2745 16.4814 33.6236C17.1337 33.9727 17.6468 34.5345 17.9356 35.2156C19.0129 35.8552 20.0734 36.537 21.0918 37.2692C21.2737 36.8634 21.5373 36.4995 21.8661 36.2003C22.6784 35.5536 23.7119 35.2514 24.7446 35.3587C25.9326 35.4344 27.086 35.7891 28.1112 36.3939C28.6243 36.6314 29.0627 37.0047 29.3787 37.4736C29.6947 37.9424 29.8764 38.4888 29.904 39.0535C29.8179 39.6136 29.5803 40.1394 29.2168 40.5741C28.8533 41.0088 28.3779 41.3357 27.8419 41.5196C27.323 41.7573 26.7777 41.9325 26.2175 42.0414C27.2352 43.2636 28.0844 44.6166 28.7425 46.0645C30.2238 45.4501 31.7977 45.9803 32.9507 47.5627C33.6428 48.5362 34.0903 49.6621 34.2553 50.8451C34.4405 52.2423 34.1038 53.3701 33.2958 53.9087C32.9017 54.184 32.4297 54.3256 31.9492 54.3127C30.3248 54.3127 28.3974 52.9492 27.3958 51.5605C27.0707 51.161 26.8288 50.7006 26.6843 50.2063C26.5397 49.712 26.4955 49.1937 26.5542 48.6821C26.653 48.0748 26.9281 47.5099 27.3453 47.0577C26.5659 45.2493 25.4716 43.5936 24.1134 42.1676C23.1616 42.1295 22.2595 41.7326 21.5884 41.0567C21.1309 40.5473 20.8504 39.9037 20.7888 39.2218C20.0734 38.6748 19.3328 38.1529 18.5753 37.6648C18.643 38.2436 18.643 38.8282 18.5753 39.407C18.5572 39.973 18.3834 40.523 18.0731 40.9967C17.7627 41.4703 17.3279 41.8493 16.8162 42.0919C16.6206 42.1574 16.4164 42.1943 16.2102 42.2013C16.4711 43.1608 16.69 44.196 16.9088 45.2818C17.3819 48.2502 18.3221 51.125 19.6947 53.7993C25.359 63.7561 40.6519 61.0376 50.777 59.2364L53.302 58.7988C60.3719 57.6036 64.8832 60.4821 67.1472 62.6199L66.5665 55.1376C57.0389 54.8935 48.6981 47.4869 42.5625 42.0498L41.3841 41.0062C40.9633 41.0062 40.5425 41.0482 40.0964 41.0482H39.3473C39.1241 41.0482 38.91 40.9596 38.7522 40.8017C38.5944 40.6439 38.5057 40.4298 38.5057 40.2066C38.5057 39.9834 38.5944 39.7693 38.7522 39.6114C38.91 39.4536 39.1241 39.3649 39.3473 39.3649L39.3389 39.3397ZM22.5058 38.6664C22.4842 38.8874 22.5066 39.1105 22.5716 39.3228C22.6366 39.5352 22.7429 39.7325 22.8846 39.9036C23.328 40.3069 23.9097 40.5239 24.5089 40.5096C25.4244 40.5495 26.3361 40.3706 27.1686 39.9878C27.8167 39.6848 28.2459 39.2808 28.2627 38.9609C28.2796 38.6411 27.8924 38.195 27.278 37.8247C26.4803 37.359 25.5828 37.0907 24.6604 37.042H24.4416C23.9205 37.006 23.4038 37.1583 22.9856 37.4712C22.8265 37.6271 22.7 37.813 22.6133 38.0182C22.5266 38.2233 22.4815 38.4436 22.4806 38.6664H22.5058ZM28.7509 50.5674C29.8198 52.0403 31.7219 52.9492 32.3111 52.5284C32.4637 52.3189 32.5672 52.0777 32.6139 51.8227C32.6605 51.5677 32.6491 51.3055 32.5804 51.0555C32.4478 50.1473 32.1048 49.2827 31.5789 48.5306C31.4143 48.2364 31.1818 47.9859 30.9006 47.7999C30.6195 47.614 30.298 47.498 29.9629 47.4617C29.5917 47.4761 29.2349 47.6088 28.9445 47.8404C28.757 47.9623 28.5956 48.1204 28.4699 48.3054C28.3442 48.4903 28.2566 48.6985 28.2122 48.9177C28.1693 49.5169 28.3626 50.109 28.7509 50.5674Z" fill="#96710F"/>
</svg>

<svg xmlns="http://www.w3.org/2000/svg" width="69" height="66" fill="none" viewBox="0 0 69 66"><path fill="#96710F" d="M67.03 53.437h.285a.84.84 0 0 1 .842.775L69 65.002a.842.842 0 0 1-1.243.784.84.84 0 0 1-.306-.28c-.177-.277-4.469-6.674-13.896-5.05l-2.525.438c-10.588 1.877-26.587 4.722-32.824-6.261a29.5 29.5 0 0 1-2.963-9.015 29 29 0 0 0-1.069-4.132c-.143-.11-.294-.219-.446-.354a7.8 7.8 0 0 1-1.683-2.356c-.093-.05-.168-.11-.26-.152-1.482-.606-2.972-2.474-3.864-4.747C5.277 31.765.682 30.511.63 30.511a.84.84 0 0 1-.616-.975.84.84 0 0 1 .179-.38c2.28-2.727 6.034-3.316 7.962-3.426.967-1.616 2.82-3.198 6.362-3.77a28 28 0 0 1-.067-1.953c-2.685-3.165-2.13-7.786-1.843-9.376C7.558 6.524 9.83.598 9.856.53a.84.84 0 0 1 .847-.529.8.8 0 0 1 .34.1c.976.538 14.19 9.165 18.49 13.559 2.526 2.626 4.057 6.733 4.958 10.285a18.7 18.7 0 0 1 5.403-6.666C45.844 12.886 64.353 4.302 65.7 3.813a.84.84 0 0 1 1.035.37 7.36 7.36 0 0 1 .513 5.312 8.76 8.76 0 0 1-4.326 4.957c.42 1.734 1.077 6.32-2.525 9.384 0 1.406-.177 5.833-2.525 8.148a4.97 4.97 0 0 1-3.442 1.439c-.732 1.683-3.367 6.228-10.74 7.373 6.001 5.327 14.241 12.641 23.34 12.641M13.364 37.614c.314.86.828 1.633 1.499 2.256.53.48 1.06.724 1.363.614s.564-.63.673-1.338a5.8 5.8 0 0 0-.26-2.702c-.362-1.01-.91-1.523-1.684-1.523a2 2 0 0 0-.69.135 1.68 1.68 0 0 0-1.002.841 2.36 2.36 0 0 0 .101 1.717m-1.885-1.203c.018-.427.115-.846.286-1.238.161-.33.38-.63.648-.883a38 38 0 0 0-1.97-.842q-.302.303-.63.58a8.6 8.6 0 0 0 1.666 2.383M9.2 27.388a12.2 12.2 0 0 0-6.313 1.608c2.39.667 4.745 1.46 7.053 2.373a3.63 3.63 0 0 0 .555-2.525A1.75 1.75 0 0 0 9.2 27.388m19.122-12.557c-3.535-3.653-13.93-10.605-17.153-12.676a7.16 7.16 0 0 0 2.887 7.457.84.84 0 0 1 .32.884c0 .06-1.372 5.53 1.523 8.619a.84.84 0 0 1 .227.606c0 .48 0 1.22.05 2.07 7.576-.446 11.195 4.52 14.098 8.543.48.657.934 1.288 1.389 1.86a35.4 35.4 0 0 1 1.683-5.664c-.766-3.796-2.222-8.846-5.024-11.7m11.017 24.51c11.186.32 13.559-6.734 13.652-7.045a.84.84 0 0 1 .841-.59 3.37 3.37 0 0 0 2.77-.959c2.238-2.188 2.028-7.255 2.028-7.305a.84.84 0 0 1 .328-.707c3.998-3.039 2.222-8.232 2.146-8.417a.84.84 0 0 1 .396-1.027c2.205-1.153 3.577-2.583 4.082-4.208a5.56 5.56 0 0 0-.076-3.366c-3.779 1.683-19.476 9.14-24.66 12.961-6.818 5.05-8.021 16.564-8.03 16.682a.847.847 0 0 1-1.683-.169c0-.067 0-.353.1-.841a33 33 0 0 1-2.373-3.03c-2.87-3.973-6.127-8.476-13.138-7.828-2.617.244-4.536 1.078-5.698 2.424a3.47 3.47 0 0 1 2.079 2.584 5.1 5.1 0 0 1-.598 3.493 65 65 0 0 1 2.845 1.305 3.24 3.24 0 0 1 3.586 1.919 43 43 0 0 1 3.156 2.053c.182-.406.445-.77.774-1.069a3.96 3.96 0 0 1 2.879-.841 7.6 7.6 0 0 1 3.366 1.035 3.1 3.1 0 0 1 1.793 2.66 3.11 3.11 0 0 1-2.062 2.466 7.2 7.2 0 0 1-1.624.521 17.8 17.8 0 0 1 2.524 4.024c1.482-.615 3.056-.085 4.209 1.498.692.973 1.14 2.1 1.304 3.282.185 1.397-.151 2.525-.96 3.064a2.25 2.25 0 0 1-1.346.404c-1.624 0-3.552-1.364-4.553-2.753a3.86 3.86 0 0 1-.842-2.878 3.14 3.14 0 0 1 .791-1.624 16.6 16.6 0 0 0-3.232-4.89 3.77 3.77 0 0 1-2.525-1.111 3.17 3.17 0 0 1-.8-1.835 34 34 0 0 0-2.213-1.557 7.5 7.5 0 0 1 0 1.742 3.08 3.08 0 0 1-1.759 2.685 2.2 2.2 0 0 1-.606.11c.261.959.48 1.994.699 3.08a28.5 28.5 0 0 0 2.786 8.517c5.664 9.957 20.957 7.239 31.082 5.437l2.525-.437c7.07-1.195 11.581 1.683 13.845 3.82l-.58-7.481c-9.528-.244-17.869-7.651-24.004-13.088l-1.179-1.044c-.42 0-.842.042-1.288.042h-.749a.841.841 0 1 1 0-1.683zm-16.833-.674a1.68 1.68 0 0 0 .379 1.238c.443.403 1.025.62 1.624.606a5.8 5.8 0 0 0 2.66-.522c.648-.303 1.077-.707 1.094-1.027s-.37-.766-.985-1.136a5.8 5.8 0 0 0-2.618-.783h-.218a2.18 2.18 0 0 0-1.456.43 1.68 1.68 0 0 0-.505 1.194zm6.245 11.901c1.069 1.473 2.97 2.382 3.56 1.961a1.73 1.73 0 0 0 .27-1.472 5.9 5.9 0 0 0-1.002-2.525 2.11 2.11 0 0 0-1.616-1.07 1.74 1.74 0 0 0-1.018.38 1.68 1.68 0 0 0-.733 1.077c-.043.599.15 1.191.539 1.65"/></svg>
